X: 20416
T: John Dwyer's
R: reel
M: 4/4
K: Gmajor
ge|dBBB GEDE|GBBB dBGB|A3 B AGED|FGAB cABc|
dBBB GEDE|GBBB dBGB|B3 B BedB|AGAB G2:|
|:ga|bggg bggg|afff afdg|bggg bgag|ea a2 ea a2|
bggg agef|g2 ge dBGA|B3 B BedB|AGAB G2:|

